X:1
T:Lord MacDonald's Rant
L:1/8
M:2/2
I:linebreak $
K:G
V:1 treble 
V:1
 d3 e dBgB | dBgB aAAB | d3 e dBgB | A/B/c BA BGG :| B | DGBG AGBG |$ AGBG AGAB | DGBG AGBG | %8
 DEDC B,G,G,B | DGBG AGBG | AGBG AGAB |$ BAGF GFED | EGFA BGG || %13
